!!!OTL: Die 'oelzerne Bein.
!!!OTL-incipit: ICK BIN EIN FRANZOSE MESDAMES
!!!COM: Volksweise
!!!ARE: Europa, Mitteleuropa, Deutschland
!!!SCT: F0084
!!!TXL: @@PDC
!!!YEM: Copyright 1995, estate of Helmut Schaffrath.
**kern	**text
*ICvox	*
*clefG2	*
*M6/8	*
*k[]	*
*C:	*
{8cc	1._Jck
=1	=1
8e	bin
8g	ein
8cc	Franʒoſe,
8e	.
8g	.
8cc	mes
=2	=2
(4g	Da-
8cc)	.
4ee}	-mes!
{8ee	voll
=3	=3
8dd	Muth
8cc	wie
8b	Champagner
8ccL	.
8aJ	.
8dd	.
=4	=4
4.g	Wein
4r}	.
{8g	Jenn
=5	=5
8ff	Grillon
8ee	.
8dd	das
(8ddL	ſeind
8ccJ)	.
8b	mein
=6	=6
(4cc	Na-
8ee)	.
4g}	-me,
{8g	mein
=7	=7
8a	Stolʒ
8ff	ſein
8ee	die
8dd	'öl-
8cc	-ʒer-
8dd	-ne
=8	=8
4.ee}	Bein,
{4.dd	mein
=9	=9
8cc	Stolʒ
8cc	ſein
8cc	die
8b	'öl-
8a	-ʒer-
8b	-ne
=10	=10
4.cc	Bein.
4r}	.
==	==
!!!AGN: Spott -, Scherz - Lied
!!!ONB: ESAC (Essen Associative Code) Database: FINK
!!!AMT: compound duple
!!!AIN: vox
!!!EED: Helmut Schaffrath
!!!EEV: 1.0
!!!GTL: Volkslieder
!!Text: Volkslied
!!!source: Musikalischer Hausschatz der Deutschen. Eine Sammlung von über 1000 Liedern und Gesängen mit Singstimmen und Klavierbegleitung. Leipzig, Litterarisches Verlags-Haus.
!!!page: 51
!!!URL-scan: https://www.digitale-sammlungen.de/en/view/bsb11144622?page=58,59
!!!ENC: Anna Maria Matuszewska
!!!EEV: 2024/07/25
*-	*-
